X: 15416
T: Glen Aln, The
R: hornpipe
M: 4/4
K: Gmajor
(3DEF|G*DB,D GBdB|gf (3efg dBGF|EGce DGBd|Adfe (3ded (3cBA|
G*DB,D GBdB|gf (3efg dBGF|EecA DdBG|(3FED (3cBA G2:|
|:(3Bc^c|dBGB dBgd|(3efg dg BgGB|(3cBA aA (3cBA ag|(3fga (3gfe (3ded (3Bc^c|
dBGB dBgd|(3efg dg BgGF|EecA DdBG|(3FED (3cBA G2:|

